X: 1
T:Faheys
M:4/4
L:1/8
C:Paddy Fahey
S:Dermy Diamond, Belfast (fiddle)
R:Reel
H:Played with the Ivy Leaf (18). Both originally from Roger Sherlock.
H:Sometimes played in D
D:Private tape - 198
N:As played
Z:Bernie Stocks
K:G
dc |BG{A}GA BdcA |~B3d cAFG | AGGA Bcdg | fgaf gedc | BGGA BdcA | BDBd ADFG |\
AGGA Bcdg | fgaf B3g3a |: bg~g2 dg{a}ge | fdcA DFAB | dg~g2 gdcA |\
dg~g2  gfga | bg~g2 dg{a}ge | fdcA ADAc | BGGA Bcdg |1 fgaf g2ga :|2 fgaf g2dc||
